X:1
T:When the Morning Light
T:When the Morning Light
T:Robert Lowry
T:Robert Lowry, 1853
T:Public Domain Courtesy of the Cyber Hymnal™
T:Public Domain Courtesy of the Cyber Hymnal™
C:Robert Lowry
Z:Public Domain
Z:Courtesy of the Cyber Hymnal™
%%score ( 1 2 ) ( 3 4 )
L:1/8
Q:1/4=100
M:4/4
K:A
V:1 treble 
V:2 treble 
V:3 bass 
V:4 bass 
V:1
 [Ec]>[DB] | [CA]2 [CA]2 [CA]2 [Fd]>[Ec] | [EB]2 [EB]2 [EB]2 [Ee]>[Ed] | [Ec]2 [FA]2 [FB]2 [EG]2 | %4
w: 1.~When the|morn- ing light drives a-|way the night, With the|sun so bright and|
w: 2.~In the|class I meet with the|friends I greet, At the|time of open- ing|
w: 3.~May the|dews of grace fill the|hal- lowed place, And the|sun- shine ne- ver|
 [EA]6 [Ec]>[DB] | [CA]2 [CA]2 [CA]2 [Fd]>[Ec] | [EB]2 [EB]2 [EB]2 [Ee]>[Ed] | %7
w: full, And the|day of rest light- ens|ev- ery breast, I’ll a-|
w: prayer; And our|hearts we raise in a|hymn of praise, For ’tis|
w: fail, While each|bloom- ing rose which in|mem- ory grows, Shall a|
 [Ec]2 [FA]2 [FB]2 [EG]2 | [EA]6 [GB]>[Ac] | [Bd]>[Ac] [GB]>[Ac] [Bd]2 [ce]>[Bd] | %10
w: way to Sab- bath|school; For ’tis|there we all a- gree, All with|
w: al- ways plea- sant|there; In the|Book of ho- ly truth, Full of|
w: sweet per- fume ex-|hale; When we|min- gle here no more, But have|
 [Ac]>[GB] [FA]>[GB] [Ac]2 [Bd]>[Ac] | [GB]>[FA] [EG]>[FA] [GB]2 [Ac]>[GB] | %12
w: hap- py hearts and free, And I|love to ear- ly be, At the|
w: coun- sel and re- proof, We be-|hold the guide of youth, At the|
w: met on Jor- dan’s shore, We will|talk of mo- ments o’er At the|
 (A>B) (c>d) !fermata![Ge]2 ||"^Girls" [Ec]>[DB] [CA]2"^Boys" A2 A2"^Girls" [Bd]>[Ac] | %14
w: Sab- * bath * school.||
w: Sab- * bath * school.|I’ll a- way! a- way! I’ll a-|
w: Sab- * bath * school.||
 [GB]2"^Boys" [GB]2 [GB]2"^All" [Ee]>[Ed] | [Ec]3 [FA] [FB]2 [EG]2 | [EA]4 z2 |] %17
w: |||
w: way! a- way! I’ll a-|way to Sab- bath|school.|
w: |||
V:2
 x2 | x8 | x8 | x8 | x8 | x8 | x8 | x8 | x8 | x8 | x8 | x8 | A2 A2 x2 || x4 A2 A2 x2 | x8 | x8 | %16
 x6 |] %17
V:3
 A,>A, | A,2 A,2 A,2 A,>A, | [E,G,]2 [E,G,]2 [E,G,]2 [G,B,]>[G,B,] | A,2 [F,C]2 [D,D]2 [E,B,]2 | %4
 [A,C]6 A,>A, | A,2 A,2 A,2 A,>A, | [E,G,]2 [E,G,]2 [E,G,]2 [G,B,]>[G,B,] | %7
 A,2 [F,C]2 [D,D]2 [E,B,]2 | [A,C]6 E,>E, | E,>E, E,>E, E,2 E,>E, | A,>A, A,>A, A,2 A,>A, | %11
 [E,B,]>[E,B,] [E,B,]>[E,B,] [E,B,]2 [E,E]>[E,D] | [A,C]2 [F,A,]2 !fermata![E,B,]2 || %13
 z4 A,2 A,2 z2 | z2 [E,E]2 [E,E]2 [G,B,]>[G,B,] | A,3 [F,C] [D,D]2 [E,B,]2 | [A,,C]4 z2 |] %17
V:4
 A,>A, | A,2 A,2 A,2 A,>A, | x8 | A,2 x6 | x6 A,>A, | A,2 A,2 A,2 A,>A, | x8 | A,2 x6 | x6 E,>E, | %9
 E,>E, E,>E, E,2 E,>E, | A,>A, A,>A, A,2 A,>A, | x8 | x6 || x4 A,2 A,2 x2 | x8 | A,3 x5 | x6 |] %17

